X: 15
T: The Wind That Shakes The Barley
R: reel
M: 4/4
L: 1/8
K: Dmaj
|A3B AFEF|DBBA BcdB|A3B A2 de|fded BcdB|
A3B AFEF|DBBA BcdB|A3B ABde|(3gfe fd Bcde|
|f3d g3e|f3d Bcde|f3d a3b|afed Bcde|
f3d g3e|f3d Bc d2|defg a3b| afed BcdB|


Tune 116	Setting 12713

